X: 9
T: Porthole Of The Kelp
C: Bobby Casey
Z: Ralex
S: https://thesession.org/tunes/263#setting43664
R: reel
M: 4/4
L: 1/8
K: Ador
AB|:c2AB cded|c2cA BG~G2|c2AB cded|cAAG (3EFG AB|
c2AB cdef|gedc BG~G2|A2 (3Bcd eaaf|1 gedB BAAB:|2 gedB BAAa||
|:a2ea aged|c2cA BG~G2|a2ea aged|eaag ~a3b|
baag agef|gedc BG~G2|A2 (3Bcd eaaf|1 gedB BAAa:|2 gedB BAAB||

